src/icons/scalable/actions/sliders-horizontal-symbolic.svg

<?xml version="1.0" encoding="UTF-8"?>
<svg xmlns="http://www.w3.org/2000/svg" height="16px" viewBox="0 0 16 16" width="16px"><g fill="#222222"><path d="m 11.5 1 c -1.921875 0 -3.5 1.578125 -3.5 3.5 s 1.578125 3.5 3.5 3.5 s 3.5 -1.578125 3.5 -3.5 s -1.578125 -3.5 -3.5 -3.5 z m 0 2 c 0.839844 0 1.5 0.660156 1.5 1.5 s -0.660156 1.5 -1.5 1.5 s -1.5 -0.660156 -1.5 -1.5 s 0.660156 -1.5 1.5 -1.5 z m 0 0"/><path d="m 4.5 8 c -1.921875 0 -3.5 1.578125 -3.5 3.5 s 1.578125 3.5 3.5 3.5 c 1.386719 0 2.59375 -0.820312 3.15625 -2 h 5.84375 c 0.832031 0 1.5 -0.667969 1.5 -1.5 s -0.667969 -1.5 -1.5 -1.5 h -5.84375 c -0.5625 -1.179688 -1.769531 -2 -3.15625 -2 z m 0 2 c 0.839844 0 1.5 0.660156 1.5 1.5 s -0.660156 1.5 -1.5 1.5 s -1.5 -0.660156 -1.5 -1.5 s 0.660156 -1.5 1.5 -1.5 z m 0 0"/><path d="m 2.5 3 c -0.832031 0 -1.5 0.667969 -1.5 1.5 s 0.667969 1.5 1.5 1.5 h 4.765625 c -0.171875 -0.480469 -0.261719 -0.988281 -0.265625 -1.5 c 0 -0.511719 0.09375 -1.019531 0.265625 -1.5 z m 0 0" fill-opacity="0.34902"/></g></svg>

<svg xmlns="http://www.w3.org/2000/svg" width="16" height="16" viewBox="0 0 16 16"><g fill="#222"><path d="M11.5 1C9.578 1 8 2.578 8 4.5S9.578 8 11.5 8 15 6.422 15 4.5 13.422 1 11.5 1m0 2c.84 0 1.5.66 1.5 1.5S12.34 6 11.5 6 10 5.34 10 4.5 10.66 3 11.5 3m-7 5C2.578 8 1 9.578 1 11.5S2.578 15 4.5 15c1.387 0 2.594-.82 3.156-2H13.5c.832 0 1.5-.668 1.5-1.5s-.668-1.5-1.5-1.5H7.656C7.094 8.82 5.886 8 4.5 8m0 2c.84 0 1.5.66 1.5 1.5S5.34 13 4.5 13 3 12.34 3 11.5 3.66 10 4.5 10m0 0"/><path fill-opacity=".349" d="M2.5 3C1.668 3 1 3.668 1 4.5S1.668 6 2.5 6h4.766A4.6 4.6 0 0 1 7 4.5c0-.512.094-1.02.266-1.5zm0 0"/></g></svg>
